icons/filled/pinned.svg

<svg xmlns="http://www.w3.org/2000/svg" width="24" height="24" viewBox="0 0 24 24" fill="currentColor"><path d="M16 3a1 1 0 0 1 .117 1.993l-.117 .007v4.764l1.894 3.789a1 1 0 0 1 .1 .331l.006 .116v2a1 1 0 0 1 -.883 .993l-.117 .007h-4v4a1 1 0 0 1 -1.993 .117l-.007 -.117v-4h-4a1 1 0 0 1 -.993 -.883l-.007 -.117v-2a1 1 0 0 1 .06 -.34l.046 -.107l1.894 -3.791v-4.762a1 1 0 0 1 -.117 -1.993l.117 -.007h8z"/></svg>

<svg xmlns="http://www.w3.org/2000/svg" width="24" height="24" fill="currentColor"><path d="M16 3a1 1 0 0 1 .117 1.993L16 5v4.764l1.894 3.789a1 1 0 0 1 .1.331L18 14v2a1 1 0 0 1-.883.993L17 17h-4v4a1 1 0 0 1-1.993.117L11 21v-4H7a1 1 0 0 1-.993-.883L6 16v-2a1 1 0 0 1 .06-.34l.046-.107L8 9.762V5a1 1 0 0 1-.117-1.993L8 3z"/></svg>
